icons/1_Primary/Toontown Rewritten.svg

<svg width="1024" height="1024" viewBox="0 0 1024 1024" fill="none" xmlns="http://www.w3.org/2000/svg">
<g clip-path="url(#clip0_2_3684)">
<path d="M512 1024C794.77 1024 1024 794.77 1024 512C1024 229.23 794.77 0 512 0C229.23 0 0 229.23 0 512C0 794.77 229.23 1024 512 1024Z" fill="#728DBE"/>
<path d="M527.14 209C510.78 208.72 494.07 211.89 479.68 219.89C463.08 228.98 450.68 244.2 441.68 260.61C429.15 283.04 423.13 310.06 428.98 335.4C435.19 329.77 438.85 322 444.26 315.68C467.43 286.68 508.08 271.76 544.14 282.29C546.74 261.04 547.74 239.5 545.74 218.16C545.674 216.441 545.402 214.735 544.93 213.08C539.62 209.82 533.14 209.32 527.14 209ZM614.71 250.1C613.714 249.987 612.706 250.075 611.746 250.361C610.785 250.646 609.892 251.122 609.12 251.76C590.59 265.76 578.33 287.2 573.5 309.76C573.21 312.69 571.7 317.92 575.65 318.86C590.383 323.878 604.178 331.313 616.47 340.86C639.47 358.46 658.47 383.2 663.79 412.2C665.41 419.93 665.73 428.57 670.86 434.99C674.86 430.99 676.99 425.64 678.57 420.34C681.67 409.34 682.46 397.84 682.73 386.46C682.88 364.46 680.91 342.28 675.39 320.92C671.25 305.18 664.95 289.78 655.12 276.71C646.33 265.098 634.349 256.297 620.64 251.38C618.717 250.738 616.728 250.315 614.71 250.12V250.1ZM437.71 369.38C433.835 369.45 429.971 369.811 426.15 370.46C404.49 373.7 384.78 384.87 368.6 399.3C350.6 415.59 336.76 436.12 326.09 457.84C310.47 490.29 301.35 525.66 297.47 561.41C293.17 598.22 299.76 636.47 317.1 669.3C330.53 694.4 351.1 716.41 377.25 728.3C397.01 737.23 419.68 740.23 440.9 735.23C465.02 730.12 486.47 715.84 502.65 697.51C514.28 713.44 529.38 727.19 547.28 735.76C565.05 744.12 585.52 747.38 604.81 742.98C627.96 738.4 648.35 723.98 662.93 705.75C678.6 686.38 688.58 662.91 694.12 638.75C702.67 601.762 701.409 563.181 690.46 526.83C682.1 499.57 667.89 473.43 646.39 454.33C631.08 440.24 611.2 430.94 590.39 429.24C565.962 427.619 541.769 434.87 522.26 449.66C518.26 432.99 512.39 416.56 503.1 402.06C495.57 390.34 485.1 380.06 471.89 375.06C460.912 371.257 449.368 369.343 437.75 369.4L437.71 369.38ZM471.49 478C476.703 478.036 481.789 479.612 486.11 482.53C488.766 484.729 490.829 487.559 492.11 490.76C492.11 490.76 483.02 511.47 479.78 522.28C476.3 533.87 472.21 557.78 472.21 557.78C469.58 555.97 466.96 554.16 464.31 552.4C452.31 544.21 440.18 536.12 428.16 527.92C432.71 515.56 438.38 503.43 446.57 493.04C451.75 486.68 458.18 480.68 466.36 478.66C468.037 478.233 469.759 478.011 471.49 478ZM562 526C562.943 526.012 563.884 526.109 564.81 526.29C574.59 528.14 581.89 535.91 587.24 543.82C597.126 559.577 601.684 578.095 600.24 596.64C599.24 606.8 596.24 617.85 587.96 624.52C581.96 629.44 573.18 629.25 566.74 625.32C555.24 618.6 548.31 606.32 543.74 594.17C556.31 587.46 568.93 580.89 581.49 574.17C567.3 573.76 553.1 573.48 538.92 572.98C537.8 560.2 538.7 546.35 545.87 535.29C549.32 529.89 555.49 525.94 562 526ZM422.13 552.31C435.22 554.7 448.25 557.31 461.3 559.92L471.89 562.02C471.89 562.02 470.96 579.7 471.3 588.54C471.58 595.85 473.47 610.36 473.47 610.36C473.47 610.36 471.27 613.79 470.15 615.49C468.214 617.648 466.074 619.614 463.76 621.36C461.25 622.823 458.456 623.734 455.566 624.033C452.676 624.331 449.756 624.01 447 623.09C436 620.09 428 610.63 424.21 600.19C418.73 584.86 419.59 568.14 422.13 552.31Z" fill="white"/>
</g>
<defs>
<clipPath id="clip0_2_3684">
<rect width="1024" height="1024" fill="white"/>
</clipPath>
</defs>
</svg>

<svg xmlns="http://www.w3.org/2000/svg" viewBox="0 0 1024 1024">
   <circle cx="512" cy="512" r="512" style="fill:#1a5493"/>
   <path d="M527.14 209c-16.36-.28-33.07 2.89-47.46 10.89-16.6 9.09-29 24.31-38 40.72-12.53 22.43-18.55 49.45-12.7 74.79 6.21-5.63 9.87-13.4 15.28-19.72 23.17-29 63.82-43.92 99.88-33.39 2.6-21.25 3.6-42.79 1.6-64.13a21.53 21.53 0 0 0-.81-5.08c-5.31-3.26-11.79-3.76-17.79-4.08Zm87.57 41.1a7.45 7.45 0 0 0-5.59 1.66c-18.53 14-30.79 35.44-35.62 58-.29 2.93-1.8 8.16 2.15 9.1a140.24 140.24 0 0 1 40.82 22c23 17.6 42 42.34 47.32 71.34 1.62 7.73 1.94 16.37 7.07 22.79 4-4 6.13-9.35 7.71-14.65 3.1-11 3.89-22.5 4.16-33.88.15-22-1.82-44.18-7.34-65.54-4.14-15.74-10.44-31.14-20.27-44.21a75 75 0 0 0-34.48-25.33 26.89 26.89 0 0 0-5.93-1.26Zm-177 119.28a77.2 77.2 0 0 0-11.56 1.08c-21.66 3.24-41.37 14.41-57.55 28.84-18 16.29-31.84 36.82-42.51 58.54-15.62 32.45-24.74 67.82-28.62 103.57-4.3 36.81 2.29 75.06 19.63 107.89 13.43 25.1 34 47.11 60.15 59 19.76 8.93 42.43 11.93 63.65 6.93 24.12-5.11 45.57-19.39 61.75-37.72 11.63 15.93 26.73 29.68 44.63 38.25 17.77 8.36 38.24 11.62 57.53 7.22 23.15-4.58 43.54-19 58.12-37.23 15.67-19.37 25.65-42.84 31.19-67a217.9 217.9 0 0 0-3.66-111.92c-8.36-27.26-22.57-53.4-44.07-72.5-15.31-14.09-35.19-23.39-56-25.09a101.63 101.63 0 0 0-68.13 20.42c-4-16.67-9.87-33.1-19.16-47.6-7.53-11.72-18-22-31.21-27a102.75 102.75 0 0 0-34.14-5.66ZM471.49 478a26.45 26.45 0 0 1 14.62 4.53 20.64 20.64 0 0 1 6 8.23s-9.09 20.71-12.33 31.52c-3.48 11.59-7.57 35.5-7.57 35.5-2.63-1.81-5.25-3.62-7.9-5.38-12-8.19-24.13-16.28-36.15-24.48 4.55-12.36 10.22-24.49 18.41-34.88 5.18-6.36 11.61-12.36 19.79-14.38a21.32 21.32 0 0 1 5.13-.66ZM562 526a15.59 15.59 0 0 1 2.81.29c9.78 1.85 17.08 9.62 22.43 17.53a86.72 86.72 0 0 1 13 52.82c-1 10.16-4 21.21-12.28 27.88-6 4.92-14.78 4.73-21.22.8-11.5-6.72-18.43-19-23-31.15 12.57-6.71 25.19-13.28 37.75-20-14.19-.41-28.39-.69-42.57-1.19-1.12-12.78-.22-26.63 6.95-37.69 3.45-5.4 9.62-9.35 16.13-9.29Zm-139.87 26.31c13.09 2.39 26.12 5 39.17 7.61l10.59 2.1s-.93 17.68-.59 26.52c.28 7.31 2.17 21.82 2.17 21.82s-2.2 3.43-3.32 5.13a45 45 0 0 1-6.39 5.87 20.44 20.44 0 0 1-16.76 1.73c-11-3-19-12.46-22.79-22.9-5.48-15.33-4.62-32.05-2.08-47.88Z" style="fill:#fff"/>
</svg>
